X: 24554
T: Lumps Of Pudding
R: jig
M: 6/8
K: Gminor
|:A|B2 G B>gf|dcd G2 B|A2 F A>fd|c>BA [G2F2] f/g/|
agf dgf|d>cB f2 d|cA^F GG/A/B/c/|d2 B G2:|
|:c|dBd dBd|dBd G2 A|cAc cAc|cAc F2 B/c/|
dBd dBd|dBd f2 d|cA^F GG/A/B/c/|d2 B G2:|
|:d|Bdg Bdg|Bdg G2 B|Acf Acf|Acf F2 d|
Bdg Bdg|Bdg f2 d|cA^F GG/A/B/c/|dBG G2:|

